X:1
T:Title
%%score ( 1 2 ) 3
L:1/8
M:4/4
K:G
V:1 treble nm="Choir Aahs, Unnamed-000"
V:2 treble 
V:3 bass nm="Choir Aahs, Unnamed-001"
V:1
 [GB]2 [Fd]2 [EG]2 [DG]2 | [EA]2 [Dc]2 [DB]4 | B4 d2 G2 | G2 z2 z4 | [GB]2 [Fd]2 [EG]2 [DG]2 | %5
w: By~William~Henry~Monk,~1861 * * *|||||
 [EA]2 [Dc]2 [DB]4 | B4 d2 G2 | G2 z2 z4 | [DA]2 [^DB]2 [EG]2 [^CA]2 | [DF]2 [DA]2 [^CE]4 | F4 z4 | %11
w: ||||||
 E4 z4 | D2 C-[CF] [B,G]2 [DA]2 | [DB]2 [Gc]2 [Fd]4 | B4 d2 G2 | A2- [FA]2 G4 |] %16
w: |||||
V:2
 x8 | x8 | D6 z2 | A2- [FA]2 [DG]4 | x8 | x8 | D6 z2 | A2- [FA]2 [DG]4 | x8 | x8 | D4- [DA]2 D2 | %11
 D2 ^C2 D4 | z2 .E2 z4 | x8 | D6 z2 | G2 z2 z4 |] %16
V:3
 [G,D]2 [D,D]2 [E,B,]2 [B,,G,]2 | [C,G,]2 [D,F,]2 [G,,G,]4 | G,4 [F,A,]2 [E,B,]2 | %3
 [D,C]4 [G,,B,]4 | [G,D]2 [D,D]2 [E,B,]2 [B,,G,]2 | [C,G,]2 [D,F,]2 [G,,G,]4 | %6
 G,4 [F,A,]2 [E,B,]2 | [D,C]4 [G,,B,]4 | [D,F,]2 [B,,B,]2 [E,B,]2 [A,,A,]2 | %9
 [D,A,]2 [F,,A,]2 [A,,A,]4 | [D,A,]4 F,2 [B,,F,]2 | [A,,G,]4 [D,F,]4 | %12
 [B,,G,]2 [A,,C]2 [E,G,]2 [D,F,]2 | G,2 [E,G,]2 [D,A,]4 | G,4 [F,A,]2 [E,B,]2 | [D,C]4 [G,B,]4 |] %16

